library/dist/img/icon_star 1.svg

<svg width="20" height="21" viewBox="0 0 20 21" fill="none" xmlns="http://www.w3.org/2000/svg">
<path d="M10 0L12.2249 3.31001L15.8779 2.00532L15.8249 6.05634L19.5106 7.25532L17.2 10.5L19.5106 13.7447L15.8249 14.9437L15.8779 18.9947L12.2249 17.69L10 21L7.77508 17.69L4.12215 18.9947L4.17508 14.9437L0.489435 13.7447L2.8 10.5L0.489435 7.25532L4.17508 6.05634L4.12215 2.00532L7.77508 3.31001L10 0Z" fill="#BB945F"/>
</svg>

<svg width="20" height="21" fill="none" xmlns="http://www.w3.org/2000/svg"><path d="m10 0 2.225 3.31 3.653-1.305-.053 4.051 3.686 1.2L17.2 10.5l2.31 3.245-3.685 1.199.053 4.05-3.653-1.304L10 21l-2.225-3.31-3.653 1.305.053-4.051-3.686-1.2L2.8 10.5.49 7.255l3.685-1.199-.053-4.05L7.775 3.31 10 0Z" fill="#BB945F"/></svg>
